website/static/img/seed-icon.svg

<svg fill="none" height="20" viewBox="0 0 20 20" width="20" xmlns="http://www.w3.org/2000/svg"><path d="m4.375 5.3125h-1.875c0 3.62402 2.93848 6.5625 6.5625 6.5625v4.2188c0 .2578.21094.4687.46875.4687h.93755c.2578 0 .4687-.2109.4687-.4687v-4.2188c0-3.62402-2.93848-6.5625-6.5625-6.5625zm11.25-1.875c-2.4668 0-4.6113 1.3623-5.7334 3.375.8115.88477 1.4121 1.95996 1.7285 3.15234 3.3018-.34277 5.8799-3.13183 5.8799-6.52734z" fill="#4b5563"/></svg>

<svg width="20" height="20" viewBox="0 0 20 20" fill="none" xmlns="http://www.w3.org/2000/svg">
<path d="M4.375 5.3125H2.5C2.5 8.93652 5.43848 11.875 9.0625 11.875V16.0938C9.0625 16.3516 9.27344 16.5625 9.53125 16.5625H10.4688C10.7266 16.5625 10.9375 16.3516 10.9375 16.0938V11.875C10.9375 8.25098 7.99902 5.3125 4.375 5.3125ZM15.625 3.4375C13.1582 3.4375 11.0137 4.7998 9.8916 6.8125C10.7031 7.69727 11.3037 8.77246 11.6201 9.96484C14.9219 9.62207 17.5 6.83301 17.5 3.4375H15.625Z" fill="#4B5563"/>
</svg>
